_includes/icons/ios-avi.svg

<svg fill="#666" height="50" viewBox="0 0 50 50" width="50" xmlns="http://www.w3.org/2000/svg"><path d="m7 2v46h36v-32.589844l-13.816406-13.410156zm2 2h19v13h13v29h-32zm21 1.578125 9.707031 9.421875h-9.707031zm-11.6875 17.867188-2.191406 10.109375h1.90625l.445312-2.308594h1.816407l.433593 2.308594h1.90625l-1.964843-10.109375zm4.257813 0 2.265625 10.109375h2.203125l2.308593-10.109375h-2.160156l-.6875 4.320312c-.179687 1.140625-.34375 2.355469-.480469 3.554688h-.03125c-.132812-1.183594-.34375-2.429688-.523437-3.507813l-.71875-4.367187zm7.632812 0v10.109375h1.96875v-10.109375zm-10.796875 1.859375h.042969c.089844.675781.226562 1.679687.332031 2.292968l.328125 2.117188h-1.4375l.375-2.101563c.101563-.582031.253906-1.632812.359375-2.308593z"/></svg>

<svg xmlns="http://www.w3.org/2000/svg" viewBox="0 0 50 50" width="50" height="50" fill="#666"><path d="M 7 2 L 7 48 L 43 48 L 43 15.410156 L 29.183594 2 Z M 9 4 L 28 4 L 28 17 L 41 17 L 41 46 L 9 46 Z M 30 5.578125 L 39.707031 15 L 30 15 Z M 18.3125 23.445313 L 16.121094 33.554688 L 18.027344 33.554688 L 18.472656 31.246094 L 20.289063 31.246094 L 20.722656 33.554688 L 22.628906 33.554688 L 20.664063 23.445313 Z M 22.570313 23.445313 L 24.835938 33.554688 L 27.039063 33.554688 L 29.347656 23.445313 L 27.1875 23.445313 L 26.5 27.765625 C 26.320313 28.90625 26.15625 30.121094 26.019531 31.320313 L 25.988281 31.320313 C 25.855469 30.136719 25.644531 28.890625 25.464844 27.8125 L 24.746094 23.445313 Z M 30.203125 23.445313 L 30.203125 33.554688 L 32.171875 33.554688 L 32.171875 23.445313 Z M 19.40625 25.304688 L 19.449219 25.304688 C 19.539063 25.980469 19.675781 26.984375 19.78125 27.597656 L 20.109375 29.714844 L 18.671875 29.714844 L 19.046875 27.613281 C 19.148438 27.03125 19.300781 25.980469 19.40625 25.304688 Z"/></svg>
